;FLAVOR:UltiGCode
;TIME:15198
;MATERIAL:17572
;MATERIAL2:0
;NOZZLE_DIAMETER:0.400000
;NOZZLE_DIAMETER2:0.400000

;Layer count: 72
;LAYER:0
M107
G0 F9000 X60.126 Y87.051 Z0.260
;TYPE:SKIRT
G1 F1200 X153.686 Y87.051 E9.73024
G1 X155.259 Y87.050 E9.89383
G1 X162.874 Y87.050 E10.68579
G1 X162.874 Y106.549 E12.71369
G1 X148.875 Y106.549 E14.16958
G1 X148.875 Y110.950 E14.62729
G1 X60.126 Y110.951 E23.85718
G1 X60.126 Y87.051 E26.34278
G0 F9000 X60.193 Y112.051
G1 F1200 X148.875 Y112.051 E35.56571
G1 X148.875 Y116.452 E36.02342
G1 X162.874 Y116.452 E37.47931
G1 X162.874 Y135.948 E39.50690
G1 X158.190 Y135.951 E39.99403
G1 X69.459 Y135.950 E49.22206
G1 X67.051 Y135.951 E49.47249
G1 X60.127 Y135.951 E50.19258
G1 X60.193 Y112.051 E52.67819
G10
G0 F9000 X63.926 Y107.151
;TYPE:WALL-INNER
G11
G1 F1200 X63.926 Y90.851 E54.37339
G1 X159.074 Y90.850 E64.26879
G1 X159.074 Y102.749 E65.50628
G1 X145.075 Y102.749 E66.96218
G1 X145.075 Y107.150 E67.41988
G1 X63.926 Y107.151 E75.85938
G0 F9000 X67.500 Y101.810
G1 F1200 X67.900 Y102.089 E75.91010
G1 X68.332 Y102.310 E75.96056
G1 X68.800 Y102.475 E76.01217
G1 X69.465 Y102.589 E76.08234
G1 X69.784 Y102.602 E76.11554
G1 X70.239 Y102.569 E76.16299
G1 X70.722 Y102.470 E76.21426
G1 X71.362 Y102.223 E76.28561
G1 X71.809 Y101.957 E76.33971
G1 X72.189 Y101.652 E76.39038
G1 X72.516 Y101.309 E76.43967
G1 X72.679 Y101.100 E76.46723
G1 X72.931 Y100.695 E76.51684
G1 X73.130 Y100.250 E76.56754
G1 X73.267 Y99.785 E76.61795
G1 X73.340 Y99.315 E76.66742
G1 X73.353 Y99.051 E76.69491
G1 X73.329 Y98.576 E76.74437
G1 X73.237 Y98.089 E76.79591
G1 X73.001 Y97.445 E76.86725
G1 X72.743 Y96.995 E76.92119
G1 X72.445 Y96.609 E76.97191
G1 X72.106 Y96.275 E77.02140
G1 X71.900 Y96.111 E77.04878
G1 X71.492 Y95.846 E77.09938
G1 X70.864 Y95.576 E77.17047
G1 X70.360 Y95.450 E77.22450
G1 X69.874 Y95.401 E77.27530
G1 X69.388 Y95.418 E77.32588
G1 X68.909 Y95.499 E77.37640
G1 X68.436 Y95.647 E77.42794
G1 X67.826 Y95.958 E77.49915
G1 X67.407 Y96.267 E77.55330
G1 X67.053 Y96.616 E77.60500
G1 X66.645 Y97.178 E77.67722
G1 X66.347 Y97.831 E77.75187
G1 X66.213 Y98.333 E77.80591
G1 X66.157 Y98.809 E77.85575
G1 X66.153 Y99.072 E77.88311
G1 X66.193 Y99.546 E77.93258
G1 X66.298 Y100.020 E77.98307
G1 X66.471 Y100.486 E78.03477
G1 X66.813 Y101.080 E78.10605
G1 X67.141 Y101.480 E78.15985
G1 X67.500 Y101.810 E78.21056
G0 F9000 X69.465 Y102.588
G0 X71.361 Y102.221
G0 X149.956 Y96.847
G1 F1200 X149.997 Y97.331 E78.26108
G1 X150.102 Y97.806 E78.31167
G1 X150.275 Y98.271 E78.36327
G1 X150.616 Y98.865 E78.43450
G1 X150.945 Y99.266 E78.48845
G1 X151.304 Y99.596 E78.53916
G1 X151.702 Y99.874 E78.58965
G1 X152.144 Y100.100 E78.64128
G1 X152.798 Y100.306 E78.71259
G1 X153.302 Y100.378 E78.76554
G1 X153.598 Y100.387 E78.79633
G1 X154.249 Y100.321 E78.86439
G1 X154.757 Y100.182 E78.91916
G1 X155.371 Y99.896 E78.98960
G1 X155.620 Y99.736 E79.02038
G1 X155.993 Y99.438 E79.07004
G1 X156.328 Y99.086 E79.12057
G1 X156.611 Y98.691 E79.17111
G1 X156.845 Y98.254 E79.22266
G1 X157.058 Y97.615 E79.29271
G1 X157.116 Y97.324 E79.32357
G1 X157.157 Y96.838 E79.37430
G1 X157.101 Y96.145 E79.44660
G1 X156.905 Y95.464 E79.52030
G1 X156.785 Y95.193 E79.55112
G1 X156.546 Y94.779 E79.60084
G1 X156.248 Y94.394 E79.65147
G1 X155.902 Y94.054 E79.70192
G1 X155.513 Y93.762 E79.75251
G1 X155.087 Y93.526 E79.80316
G1 X154.634 Y93.350 E79.85370
G1 X154.161 Y93.236 E79.90430
G1 X153.677 Y93.187 E79.95489
G1 X153.192 Y93.204 E80.00536
G1 X152.712 Y93.285 E80.05599
G1 X152.249 Y93.431 E80.10648
G1 X151.800 Y93.641 E80.15803
G1 X151.245 Y94.025 E80.22822
G1 X150.857 Y94.402 E80.28448
G1 X150.560 Y94.786 E80.33497
G1 X150.237 Y95.391 E80.40630
G1 X150.070 Y95.881 E80.46013
G1 X149.980 Y96.361 E80.51092
G1 X149.956 Y96.847 E80.56153
G0 F9000 X150.357 Y96.840
;TYPE:WALL-OUTER
G1 F1200 X150.393 Y97.270 E80.60641
G1 X150.487 Y97.693 E80.65147
G1 X150.638 Y98.101 E80.69672
G1 X150.946 Y98.637 E80.76101
G1 X151.236 Y98.991 E80.80860
G1 X151.555 Y99.283 E80.85358
G1 X151.909 Y99.530 E80.89847
G1 X152.297 Y99.729 E80.94382
G1 X152.887 Y99.915 E81.00816
G1 X153.337 Y99.979 E81.05543
G1 X153.584 Y99.986 E81.08112
G1 X154.176 Y99.926 E81.14301
G1 X154.619 Y99.805 E81.19077
G1 X155.178 Y99.545 E81.25488
G1 X155.387 Y99.411 E81.28070
G1 X155.722 Y99.143 E81.32532
G1 X156.019 Y98.830 E81.37020
G1 X156.271 Y98.479 E81.41513
G1 X156.476 Y98.095 E81.46040
G1 X156.671 Y97.512 E81.52434
G1 X156.719 Y97.268 E81.55020
G1 X156.756 Y96.837 E81.59519
G1 X156.706 Y96.217 E81.65988
G1 X156.528 Y95.601 E81.72656
G1 X156.428 Y95.374 E81.75236
G1 X156.213 Y95.002 E81.79704
G1 X155.949 Y94.661 E81.84190
G1 X155.641 Y94.358 E81.88683
G1 X155.295 Y94.099 E81.93178
G1 X154.917 Y93.889 E81.97675
G1 X154.514 Y93.733 E82.02169
G1 X154.094 Y93.631 E82.06664
G1 X153.664 Y93.588 E82.11158
G1 X153.233 Y93.603 E82.15644
G1 X152.806 Y93.675 E82.20147
G1 X152.394 Y93.804 E82.24637
G1 X152.000 Y93.989 E82.29164
G1 X151.494 Y94.339 E82.35562
G1 X151.161 Y94.663 E82.40394
G1 X150.897 Y95.005 E82.44888
G1 X150.605 Y95.550 E82.51318
G1 X150.458 Y95.983 E82.56074
G1 X150.378 Y96.408 E82.60571
G1 X150.357 Y96.840 E82.65069
G0 F9000 X150.057 Y96.826
G0 X145.475 Y102.849
G0 X145.475 Y103.149
G1 F1200 X145.475 Y107.550 E83.10840
G1 X63.526 Y107.551 E91.63109
G1 X63.526 Y90.451 E93.40949
G1 X159.474 Y90.450 E103.38808
G1 X159.474 Y103.149 E104.70878
G1 X145.475 Y103.149 E106.16468
G0 F9000 X145.475 Y102.849
G0 X73.240 Y99.288
G0 X72.941 Y99.274
G1 F1200 X72.952 Y99.051 E106.18790
G1 X72.931 Y98.623 E106.23246
G1 X72.850 Y98.196 E106.27766
G1 X72.637 Y97.614 E106.34212
G1 X72.410 Y97.218 E106.38959
G1 X72.145 Y96.875 E106.43467
G1 X71.840 Y96.574 E106.47923
G1 X71.666 Y96.436 E106.50233
G1 X71.303 Y96.200 E106.54736
G1 X70.736 Y95.956 E106.61155
G1 X70.291 Y95.845 E106.65925
G1 X69.861 Y95.802 E106.70419
G1 X69.429 Y95.817 E106.74915
G1 X69.003 Y95.889 E106.79408
G1 X68.587 Y96.019 E106.83941
G1 X68.037 Y96.299 E106.90359
G1 X67.668 Y96.572 E106.95133
G1 X67.358 Y96.877 E106.99656
G1 X66.992 Y97.381 E107.06134
G1 X66.725 Y97.966 E107.12822
G1 X66.607 Y98.408 E107.17579
G1 X66.556 Y98.836 E107.22062
G1 X66.553 Y99.058 E107.24371
G1 X66.589 Y99.485 E107.28828
G1 X66.683 Y99.907 E107.33324
G1 X66.834 Y100.315 E107.37848
G1 X67.143 Y100.852 E107.44292
G1 X67.432 Y101.205 E107.49036
G1 X67.751 Y101.497 E107.53534
G1 X68.106 Y101.745 E107.58038
G1 X68.490 Y101.941 E107.62521
G1 X68.901 Y102.086 E107.67054
G1 X69.507 Y102.190 E107.73449
G1 X69.777 Y102.201 E107.76259
G1 X70.184 Y102.172 E107.80502
G1 X70.609 Y102.085 E107.85014
G1 X71.187 Y101.862 E107.91457
G1 X71.580 Y101.628 E107.96214
G1 X71.918 Y101.357 E108.00720
G1 X72.213 Y101.047 E108.05170
G1 X72.350 Y100.871 E108.07490
G1 X72.577 Y100.506 E108.11960
G1 X72.754 Y100.111 E108.16461
G1 X72.876 Y99.698 E108.20940
G1 X72.941 Y99.274 E108.25401
G0 F9000 X73.503 Y99.241
;TYPE:SKIN
G1 F1200 X81.250 Y106.989 E109.39350
G0 F9000 X80.685 Y106.989
G1 F1200 X73.435 Y99.739 E110.45982
G0 F9000 X73.493 Y98.666
G1 F1200 X81.816 Y106.989 E111.68395
G0 F9000 X82.382 Y106.989
G1 F1200 X73.363 Y97.970 E113.01045
G0 F9000 X72.891 Y96.933
G1 F1200 X82.947 Y106.989 E114.48947
G0 F9000 X83.513 Y106.989
G1 F1200 X67.534 Y91.010 E116.83963
G0 F9000 X66.968 Y91.010
G1 F1200 X71.839 Y95.881 E117.55605
G0 F9000 X70.782 Y95.390
G1 F1200 X66.402 Y91.010 E118.20025
G0 F9000 X65.837 Y91.010
G1 F1200 X70.087 Y95.260 E118.82533
G0 F9000 X69.513 Y95.252
G1 F1200 X65.271 Y91.010 E119.44924
G0 F9000 X64.705 Y91.010
G1 F1200 X69.012 Y95.317 E120.08270
G0 F9000 X68.566 Y95.436
G1 F1200 X64.140 Y91.010 E120.73367
G0 F9000 X64.085 Y91.521
G1 F1200 X68.167 Y95.603 E121.33405
G0 F9000 X67.793 Y95.794
G1 F1200 X64.085 Y92.087 E121.87934
G0 F9000 X64.085 Y92.652
G1 F1200 X67.460 Y96.027 E122.37573
G0 F9000 X67.156 Y96.288
G1 F1200 X64.085 Y93.218 E122.82733
G0 F9000 X64.085 Y93.784
G1 F1200 X66.880 Y96.579 E123.23841
G0 F9000 X66.643 Y96.907
G1 F1200 X64.085 Y94.349 E123.61464
G0 F9000 X64.085 Y94.915
G1 F1200 X66.430 Y97.260 E123.95954
G0 F9000 X66.253 Y97.649
G1 F1200 X64.085 Y95.481 E124.27840
G0 F9000 X64.085 Y96.047
G1 F1200 X66.115 Y98.077 E124.57697
G0 F9000 X66.026 Y98.553
G1 F1200 X64.085 Y96.612 E124.86245
G0 F9000 X64.085 Y97.178
G1 F1200 X65.993 Y99.086 E125.14308
G0 F9000 X66.069 Y99.728
G1 F1200 X64.085 Y97.744 E125.43488
G0 F9000 X64.085 Y98.309
G1 F1200 X66.323 Y100.547 E125.76404
G0 F9000 X64.085 Y100.572
G1 F1200 X70.502 Y106.989 E126.70784
G0 F9000 X69.937 Y106.989
G1 F1200 X64.085 Y101.138 E127.56847
G0 F9000 X64.085 Y101.703
G1 F1200 X69.371 Y106.989 E128.34593
G0 F9000 X68.805 Y106.989
G1 F1200 X64.085 Y102.269 E129.04014
G0 F9000 X64.085 Y102.835
G1 F1200 X68.240 Y106.989 E129.65117
G0 F9000 X67.674 Y106.989
G1 F1200 X64.085 Y103.400 E130.17904
G0 F9000 X64.085 Y103.966
G1 F1200 X67.108 Y106.989 E130.62365
G0 F9000 X66.542 Y106.989
G1 F1200 X64.085 Y104.532 E130.98502
G0 F9000 X64.085 Y105.097
G1 F1200 X65.977 Y106.989 E131.26330
G0 F9000 X65.411 Y106.989
G1 F1200 X64.085 Y105.663 E131.45832
G0 F9000 X64.085 Y106.229
G1 F1200 X64.845 Y106.989 E131.57010
G0 F9000 X64.280 Y106.989
G1 F1200 X64.085 Y106.795 E131.59871
G0 F9000 X68.192 Y102.416
G1 F1200 X72.765 Y106.989 E132.27130
G0 F9000 X72.199 Y106.989
G1 F1200 X64.085 Y98.875 E133.46469
G0 F9000 X64.085 Y99.441
G1 F1200 X71.634 Y106.989 E134.57491
G0 F9000 X71.068 Y106.989
G1 F1200 X64.085 Y100.006 E135.60196
G0 F9000 X69.015 Y102.674
G1 F1200 X73.331 Y106.989 E136.23667
G0 F9000 X73.896 Y106.989
G1 F1200 X69.664 Y102.756 E136.85918
G0 F9000 X70.205 Y102.732
G1 F1200 X74.462 Y106.989 E137.48529
G0 F9000 X75.028 Y106.989
G1 F1200 X70.680 Y102.641 E138.12479
G0 F9000 X71.100 Y102.495
G1 F1200 X75.593 Y106.989 E138.78568
G0 F9000 X76.159 Y106.989
G1 F1200 X71.498 Y102.328 E139.47122
G0 F9000 X71.853 Y102.117
G1 F1200 X76.725 Y106.989 E140.18778
G0 F9000 X77.291 Y106.989
G1 F1200 X72.172 Y101.870 E140.94067
G0 F9000 X72.462 Y101.595
G1 F1200 X77.856 Y106.989 E141.73401
G0 F9000 X78.422 Y106.989
G1 F1200 X72.728 Y101.295 E142.57148
G0 F9000 X72.955 Y100.956
G1 F1200 X78.988 Y106.989 E143.45880
G0 F9000 X79.553 Y106.989
G1 F1200 X73.152 Y100.588 E144.40025
G0 F9000 X73.314 Y100.185
G1 F1200 X80.119 Y106.989 E145.40104
G0 F9000 X84.079 Y106.989
G1 F1200 X68.100 Y91.010 E147.75120
G0 F9000 X68.665 Y91.010
G1 F1200 X84.644 Y106.989 E150.10137
G0 F9000 X85.210 Y106.989
G1 F1200 X69.231 Y91.010 E152.45153
G0 F9000 X69.797 Y91.010
G1 F1200 X85.776 Y106.989 E154.80169
G0 F9000 X86.341 Y106.989
G1 F1200 X70.362 Y91.010 E157.15186
G0 F9000 X70.928 Y91.010
G1 F1200 X86.907 Y106.989 E159.50202
G0 F9000 X87.473 Y106.989
G1 F1200 X71.494 Y91.010 E161.85218
G0 F9000 X72.059 Y91.010
G1 F1200 X88.039 Y106.989 E164.20242
G0 F9000 X88.604 Y106.989
G1 F1200 X72.625 Y91.010 E166.55258
G0 F9000 X73.191 Y91.010
G1 F1200 X89.170 Y106.989 E168.90274
G0 F9000 X89.736 Y106.989
G1 F1200 X73.756 Y91.010 E171.25298
G0 F9000 X74.322 Y91.010
G1 F1200 X90.301 Y106.989 E173.60314
G0 F9000 X90.867 Y106.989
G1 F1200 X74.888 Y91.010 E175.95330
G0 F9000 X75.453 Y91.010
G1 F1200 X91.433 Y106.989 E178.30354
G0 F9000 X91.998 Y106.989
G1 F1200 X76.019 Y91.010 E180.65370
G0 F9000 X76.585 Y91.010
G1 F1200 X92.564 Y106.989 E183.00387
G0 F9000 X93.130 Y106.989
G1 F1200 X77.151 Y91.010 E185.35403
G0 F9000 X77.716 Y91.010
G1 F1200 X93.695 Y106.989 E187.70419
G0 F9000 X94.261 Y106.989
G1 F1200 X78.282 Y91.010 E190.05435
G0 F9000 X78.848 Y91.010
G1 F1200 X94.827 Y106.989 E192.40452
G0 F9000 X95.392 Y106.989
G1 F1200 X79.413 Y91.010 E194.75468
G0 F9000 X79.979 Y91.010
G1 F1200 X95.958 Y106.989 E197.10484
G0 F9000 X96.524 Y106.989
G1 F1200 X80.545 Y91.010 E199.45501
G0 F9000 X81.110 Y91.010
G1 F1200 X97.090 Y106.989 E201.80524
G0 F9000 X97.655 Y106.989
G1 F1200 X81.676 Y91.010 E204.15540
G0 F9000 X82.242 Y91.010
G1 F1200 X98.221 Y106.989 E206.50557
G0 F9000 X98.787 Y106.989
G1 F1200 X82.807 Y91.010 E208.85580
G0 F9000 X83.373 Y91.010
G1 F1200 X99.352 Y106.989 E211.20597
G0 F9000 X99.918 Y106.989
G1 F1200 X83.939 Y91.010 E213.55613
G0 F9000 X84.504 Y91.010
G1 F1200 X100.484 Y106.989 E215.90636
G0 F9000 X101.049 Y106.989
G1 F1200 X85.070 Y91.010 E218.25653
G0 F9000 X85.636 Y91.010
G1 F1200 X101.615 Y106.989 E220.60669
G0 F9000 X102.181 Y106.989
G1 F1200 X86.201 Y91.010 E222.95693
G0 F9000 X86.767 Y91.010
G1 F1200 X102.746 Y106.989 E225.30709
G0 F9000 X103.312 Y106.989
G1 F1200 X87.333 Y91.010 E227.65725
G0 F9000 X87.899 Y91.010
G1 F1200 X103.878 Y106.989 E230.00741
G0 F9000 X104.443 Y106.989
G1 F1200 X88.464 Y91.010 E232.35758
G0 F9000 X89.030 Y91.010
G1 F1200 X105.009 Y106.989 E234.70774
G0 F9000 X105.575 Y106.989
G1 F1200 X89.596 Y91.010 E237.05790
G0 F9000 X90.161 Y91.010
G1 F1200 X106.140 Y106.989 E239.40807
G0 F9000 X106.706 Y106.989
G1 F1200 X90.727 Y91.010 E241.75823
G0 F9000 X91.293 Y91.010
G1 F1200 X107.272 Y106.989 E244.10839
G0 F9000 X107.838 Y106.989
G1 F1200 X91.858 Y91.010 E246.45863
G0 F9000 X92.424 Y91.010
G1 F1200 X108.403 Y106.989 E248.80879
G0 F9000 X108.969 Y106.989
G1 F1200 X92.990 Y91.010 E251.15895
G0 F9000 X93.555 Y91.010
G1 F1200 X109.535 Y106.989 E253.50919
G0 F9000 X110.100 Y106.989
G1 F1200 X94.121 Y91.010 E255.85935
G0 F9000 X94.687 Y91.010
G1 F1200 X110.666 Y106.989 E258.20951
G0 F9000 X111.232 Y106.989
G1 F1200 X95.252 Y91.010 E260.55975
G0 F9000 X95.818 Y91.010
G1 F1200 X111.797 Y106.989 E262.90991
G0 F9000 X112.363 Y106.989
G1 F1200 X96.384 Y91.010 E265.26008
G0 F9000 X96.949 Y91.010
G1 F1200 X112.929 Y106.989 E267.61031
G0 F9000 X113.494 Y106.989
G1 F1200 X97.515 Y91.010 E269.96048
G0 F9000 X98.081 Y91.010
G1 F1200 X114.060 Y106.989 E272.31064
G0 F9000 X114.626 Y106.989
G1 F1200 X98.647 Y91.010 E274.66080
G0 F9000 X99.212 Y91.010
G1 F1200 X115.191 Y106.989 E277.01096
G0 F9000 X115.757 Y106.989
G1 F1200 X99.778 Y91.010 E279.36113
G0 F9000 X100.344 Y91.010
G1 F1200 X116.323 Y106.989 E281.71129
G0 F9000 X116.888 Y106.989
G1 F1200 X100.909 Y91.010 E284.06145
G0 F9000 X101.475 Y91.010
G1 F1200 X117.454 Y106.989 E286.41161
G0 F9000 X118.020 Y106.989
G1 F1200 X102.041 Y91.010 E288.76178
G0 F9000 X102.606 Y91.010
G1 F1200 X118.586 Y106.989 E291.11201
G0 F9000 X119.151 Y106.989
G1 F1200 X103.172 Y91.010 E293.46218
G0 F9000 X103.738 Y91.010
G1 F1200 X119.717 Y106.989 E295.81234
G0 F9000 X120.283 Y106.989
G1 F1200 X104.303 Y91.010 E298.16258
G0 F9000 X104.869 Y91.010
G1 F1200 X120.848 Y106.989 E300.51274
G0 F9000 X121.414 Y106.989
G1 F1200 X105.435 Y91.010 E302.86290
G0 F9000 X106.000 Y91.010
G1 F1200 X121.980 Y106.989 E305.21314
G0 F9000 X122.545 Y106.989
G1 F1200 X106.566 Y91.010 E307.56330
G0 F9000 X107.132 Y91.010
G1 F1200 X123.111 Y106.989 E309.91346
G0 F9000 X123.677 Y106.989
G1 F1200 X107.698 Y91.010 E312.26362
G0 F9000 X108.263 Y91.010
G1 F1200 X124.242 Y106.989 E314.61379
G0 F9000 X124.808 Y106.989
G1 F1200 X108.829 Y91.010 E316.96395
G0 F9000 X109.395 Y91.010
G1 F1200 X125.374 Y106.989 E319.31411
G0 F9000 X125.939 Y106.989
G1 F1200 X109.960 Y91.010 E321.66428
G0 F9000 X110.526 Y91.010
G1 F1200 X126.505 Y106.989 E324.01444
G0 F9000 X127.071 Y106.989
G1 F1200 X111.092 Y91.010 E326.36460
G0 F9000 X111.657 Y91.010
G1 F1200 X127.637 Y106.989 E328.71484
G0 F9000 X128.202 Y106.989
G1 F1200 X112.223 Y91.010 E331.06500
G0 F9000 X112.789 Y91.010
G1 F1200 X128.768 Y106.989 E333.41516
G0 F9000 X129.334 Y106.989
G1 F1200 X113.354 Y91.010 E335.76540
G0 F9000 X113.920 Y91.010
G1 F1200 X129.899 Y106.989 E338.11556
G0 F9000 X130.465 Y106.989
G1 F1200 X114.486 Y91.010 E340.46572
G0 F9000 X115.051 Y91.010
G1 F1200 X131.031 Y106.989 E342.81596
G0 F9000 X131.596 Y106.989
G1 F1200 X115.617 Y91.010 E345.16612
G0 F9000 X116.183 Y91.010
G1 F1200 X132.162 Y106.989 E347.51629
G0 F9000 X132.728 Y106.989
G1 F1200 X116.748 Y91.010 E349.86652
G0 F9000 X117.314 Y91.010
G1 F1200 X133.293 Y106.989 E352.21669
G0 F9000 X133.859 Y106.989
G1 F1200 X117.880 Y91.010 E354.56685
G0 F9000 X118.446 Y91.010
G1 F1200 X134.425 Y106.989 E356.91701
G0 F9000 X134.990 Y106.989
G1 F1200 X119.011 Y91.010 E359.26717
G0 F9000 X119.577 Y91.010
G1 F1200 X135.556 Y106.989 E361.61734
G0 F9000 X136.122 Y106.989
