;FLAVOR:UltiGCode
;TIME:1631
;MATERIAL:1510
;MATERIAL2:0
;NOZZLE_DIAMETER:0.400000
;NOZZLE_DIAMETER2:0.400000

;Layer count: 38
;LAYER:0
M107
G0 F9000 X99.604 Y99.921 Z0.260
;TYPE:SKIRT
G1 F1200 X100.408 Y99.147 E0.11607
G1 X101.256 Y98.436 E0.23115
G1 X102.162 Y97.774 E0.34785
G1 X103.099 Y97.183 E0.46306
G1 X104.086 Y96.646 E0.57992
G1 X105.100 Y96.182 E0.69589
G1 X106.131 Y95.792 E0.81053
G1 X107.204 Y95.465 E0.92719
G1 X108.256 Y95.220 E1.03953
G1 X108.888 Y95.106 E1.10632
G1 X109.917 Y94.976 E1.21418
G1 X110.551 Y94.927 E1.28032
G1 X111.626 Y94.898 E1.39216
G1 X112.735 Y94.944 E1.50759
G1 X113.853 Y95.066 E1.62455
G1 X114.947 Y95.260 E1.74011
G1 X116.020 Y95.525 E1.85505
G1 X117.088 Y95.868 E1.97171
G1 X118.119 Y96.275 E2.08699
G1 X119.139 Y96.760 E2.20445
G1 X120.083 Y97.291 E2.31709
G1 X120.620 Y97.630 E2.38313
G1 X121.485 Y98.237 E2.49303
G1 X122.365 Y98.947 E2.61063
G1 X123.064 Y99.596 E2.70983
G1 X123.175 Y99.698 E2.72550
G1 X123.940 Y100.507 E2.84130
G1 X124.654 Y101.371 E2.95787
G1 X125.299 Y102.270 E3.07294
G1 X125.893 Y103.228 E3.19017
G1 X126.415 Y104.211 E3.30592
G1 X126.867 Y105.220 E3.42090
G1 X127.257 Y106.271 E3.53749
G1 X127.569 Y107.335 E3.65281
G1 X127.807 Y108.399 E3.76620
G1 X127.915 Y109.017 E3.83144
G1 X128.042 Y110.096 E3.94443
G1 X128.097 Y111.160 E4.05524
G1 X128.099 Y111.779 E4.11961
G1 X128.046 Y112.864 E4.23259
G1 X127.918 Y113.957 E4.34704
G1 X127.854 Y114.330 E4.38640
G1 X127.847 Y114.428 E4.39661
G1 X127.582 Y115.625 E4.52412
G1 X127.273 Y116.679 E4.63835
G1 X126.886 Y117.738 E4.75561
G1 X126.444 Y118.730 E4.86855
G1 X126.159 Y119.288 E4.93371
G1 X125.628 Y120.218 E5.04509
G1 X125.007 Y121.152 E5.16174
G1 X124.333 Y122.032 E5.27702
G1 X123.589 Y122.878 E5.39418
G1 X122.800 Y123.663 E5.50993
G1 X121.964 Y124.389 E5.62509
G1 X121.072 Y125.064 E5.74142
G1 X120.146 Y125.671 E5.85657
G1 X119.190 Y126.212 E5.97081
G1 X118.623 Y126.494 E6.03667
G1 X117.640 Y126.923 E6.14822
G1 X116.604 Y127.297 E6.26277
G1 X115.520 Y127.607 E6.38002
G1 X114.436 Y127.839 E6.49531
G1 X113.328 Y128.000 E6.61175
G1 X112.254 Y128.082 E6.72377
G1 X111.608 Y128.100 E6.79098
G1 X110.589 Y128.076 E6.89699
G1 X109.906 Y128.024 E6.96823
G1 X108.901 Y127.896 E7.07359
G1 X108.265 Y127.783 E7.14077
G1 X107.246 Y127.547 E7.24955
G1 X106.177 Y127.225 E7.36566
G1 X105.140 Y126.834 E7.48092
G1 X104.166 Y126.392 E7.59216
G1 X104.041 Y126.329 E7.60672
G1 X103.131 Y125.838 E7.71425
G1 X102.185 Y125.241 E7.83059
G1 X101.293 Y124.593 E7.94525
G1 X100.438 Y123.880 E8.06104
G1 X99.626 Y123.101 E8.17806
G1 X98.876 Y122.282 E8.29356
G1 X98.176 Y121.404 E8.41034
G1 X97.547 Y120.494 E8.52538
G1 X96.986 Y119.557 E8.63896
G1 X96.689 Y119.000 E8.70461
G1 X96.233 Y118.019 E8.81712
G1 X95.834 Y116.995 E8.93141
G1 X95.504 Y115.941 E9.04628
G1 X95.245 Y114.868 E9.16107
G1 X95.129 Y114.241 E9.22739
G1 X94.984 Y113.185 E9.33824
G1 X94.913 Y112.117 E9.44956
G1 X94.899 Y111.458 E9.51811
G1 X94.935 Y110.395 E9.62873
G1 X95.043 Y109.323 E9.74078
G1 X95.137 Y108.709 E9.80538
G1 X95.349 Y107.652 E9.91750
G1 X95.648 Y106.566 E10.03464
G1 X96.012 Y105.521 E10.14973
G1 X96.441 Y104.514 E10.26356
G1 X96.715 Y103.951 E10.32868
G1 X97.228 Y103.019 E10.43932
G1 X97.815 Y102.103 E10.55247
G1 X98.178 Y101.595 E10.61740
G1 X98.849 Y100.752 E10.72946
G1 X99.604 Y99.921 E10.84622
G0 F9000 X99.891 Y100.200
G1 F1200 X100.675 Y99.445 E10.95942
G1 X101.503 Y98.751 E11.07178
G1 X102.387 Y98.105 E11.18565
G1 X103.301 Y97.528 E11.29806
G1 X104.265 Y97.004 E11.41217
G1 X105.255 Y96.551 E11.52540
G1 X106.261 Y96.171 E11.63724
G1 X107.308 Y95.852 E11.75107
G1 X108.337 Y95.612 E11.86095
G1 X108.948 Y95.502 E11.92552
G1 X109.958 Y95.374 E12.03140
G1 X110.571 Y95.326 E12.09535
G1 X111.623 Y95.298 E12.20479
G1 X112.705 Y95.343 E12.31742
G1 X113.797 Y95.463 E12.43167
G1 X114.864 Y95.652 E12.54437
G1 X115.911 Y95.911 E12.65654
G1 X116.954 Y96.245 E12.77043
G1 X117.960 Y96.642 E12.88291
G1 X118.955 Y97.116 E12.99753
G1 X119.878 Y97.635 E13.10766
G1 X120.399 Y97.963 E13.17169
G1 X121.244 Y98.556 E13.27905
G1 X122.102 Y99.250 E13.39382
G1 X122.795 Y99.892 E13.49206
G1 X122.895 Y99.984 E13.50619
G1 X123.640 Y100.772 E13.61897
G1 X124.337 Y101.615 E13.73273
G1 X124.966 Y102.492 E13.84497
G1 X125.546 Y103.427 E13.95940
G1 X126.055 Y104.387 E14.07241
G1 X126.497 Y105.371 E14.18459
G1 X126.877 Y106.398 E14.29848
G1 X127.182 Y107.435 E14.41090
G1 X127.415 Y108.477 E14.52194
G1 X127.519 Y109.075 E14.58506
G1 X127.643 Y110.130 E14.69554
G1 X127.697 Y111.171 E14.80395
G1 X127.699 Y111.770 E14.86625
G1 X127.647 Y112.831 E14.97672
G1 X127.522 Y113.900 E15.08866
G1 X127.457 Y114.283 E15.12906
G1 X127.450 Y114.369 E15.13803
G1 X127.194 Y115.525 E15.26117
G1 X126.893 Y116.554 E15.37267
G1 X126.515 Y117.588 E15.48716
G1 X126.083 Y118.557 E15.59750
G1 X125.807 Y119.097 E15.66057
G1 X125.287 Y120.008 E15.76966
G1 X124.682 Y120.920 E15.88348
G1 X124.024 Y121.778 E15.99594
G1 X123.298 Y122.603 E16.11023
G1 X122.527 Y123.370 E16.22333
G1 X121.712 Y124.078 E16.33561
G1 X120.841 Y124.737 E16.44920
G1 X119.937 Y125.329 E16.56158
G1 X119.002 Y125.859 E16.67335
G1 X118.454 Y126.132 E16.73703
G1 X117.492 Y126.552 E16.84619
G1 X116.481 Y126.916 E16.95795
G1 X115.423 Y127.218 E17.07237
G1 X114.365 Y127.445 E17.18491
G1 X113.284 Y127.602 E17.29851
G1 X112.233 Y127.683 E17.40814
G1 X111.607 Y127.700 E17.47327
G1 X110.609 Y127.676 E17.57709
G1 X109.947 Y127.626 E17.64613
G1 X108.961 Y127.501 E17.74950
G1 X108.345 Y127.391 E17.81458
G1 X107.349 Y127.160 E17.92091
G1 X106.306 Y126.846 E18.03419
G1 X105.293 Y126.464 E18.14678
G1 X104.339 Y126.031 E18.25574
G1 X104.225 Y125.974 E18.26900
G1 X103.333 Y125.492 E18.37444
G1 X102.410 Y124.910 E18.48792
G1 X101.539 Y124.278 E18.59984
G1 X100.705 Y123.581 E18.71288
G1 X99.912 Y122.822 E18.82704
G1 X99.181 Y122.022 E18.93974
G1 X98.498 Y121.165 E19.05371
G1 X97.883 Y120.278 E19.16597
G1 X97.334 Y119.360 E19.27721
G1 X97.047 Y118.822 E19.34062
G1 X96.601 Y117.862 E19.45071
G1 X96.212 Y116.862 E19.56230
G1 X95.889 Y115.834 E19.67437
G1 X95.636 Y114.784 E19.78669
G1 X95.524 Y114.177 E19.85089
G1 X95.383 Y113.144 E19.95932
G1 X95.312 Y112.099 E20.06825
G1 X95.299 Y111.461 E20.13461
G1 X95.335 Y110.422 E20.24273
G1 X95.440 Y109.373 E20.35238
G1 X95.531 Y108.778 E20.41497
G1 X95.739 Y107.745 E20.52456
G1 X96.030 Y106.685 E20.63888
G1 X96.386 Y105.665 E20.75124
G1 X96.805 Y104.680 E20.86256
G1 X97.070 Y104.135 E20.92559
G1 X97.572 Y103.224 E21.03376
G1 X98.146 Y102.328 E21.14443
G1 X98.498 Y101.836 E21.20734
G1 X99.154 Y101.011 E21.31696
G1 X99.891 Y100.200 E21.43093
G10
G0 F9000 X102.616 Y102.850
;TYPE:WALL-INNER
G11
G1 F1200 X103.220 Y102.270 E21.51802
G1 X103.850 Y101.742 E21.60351
G1 X104.525 Y101.248 E21.69050
G1 X105.217 Y100.812 E21.77556
G1 X105.960 Y100.408 E21.86351
G1 X106.730 Y100.056 E21.95157
G1 X107.483 Y99.771 E22.03530
G1 X108.300 Y99.522 E22.12413
G1 X109.090 Y99.338 E22.20848
G1 X109.537 Y99.258 E22.25571
G1 X110.345 Y99.155 E22.34042
G1 X110.759 Y99.123 E22.38361
G1 X111.605 Y99.100 E22.47162
G1 X112.419 Y99.134 E22.55635
G1 X113.247 Y99.225 E22.64298
G1 X114.086 Y99.373 E22.73159
G1 X114.874 Y99.568 E22.81601
G1 X115.672 Y99.824 E22.90317
G1 X116.437 Y100.126 E22.98870
G1 X117.208 Y100.493 E23.07751
G1 X117.926 Y100.897 E23.16319
G1 X118.954 Y101.592 E23.29224
G1 X119.614 Y102.125 E23.38047
G1 X120.235 Y102.701 E23.46856
G1 X120.787 Y103.285 E23.55213
G1 X121.329 Y103.941 E23.64063
G1 X121.802 Y104.600 E23.72499
G1 X122.250 Y105.323 E23.81345
G1 X122.637 Y106.052 E23.89929
G1 X122.978 Y106.811 E23.98582
G1 X123.268 Y107.594 E24.07266
G1 X123.500 Y108.384 E24.15829
G1 X123.689 Y109.231 E24.24855
G1 X123.855 Y110.455 E24.37701
G1 X123.897 Y111.263 E24.46115
G1 X123.899 Y111.689 E24.50546
G1 X123.858 Y112.510 E24.59095
G1 X123.758 Y113.369 E24.68089
G1 X123.684 Y113.800 E24.72637
G1 X123.511 Y114.578 E24.80925
G1 X123.283 Y115.359 E24.89387
G1 X122.987 Y116.168 E24.98346
G1 X122.651 Y116.922 E25.06931
G1 X122.470 Y117.278 E25.11084
G1 X122.051 Y118.012 E25.19874
G1 X121.584 Y118.714 E25.28643
G1 X121.083 Y119.369 E25.37219
G1 X120.530 Y119.997 E25.45922
G1 X119.940 Y120.584 E25.54577
G1 X119.316 Y121.126 E25.63173
G1 X118.657 Y121.624 E25.71763
G1 X117.956 Y122.084 E25.80483
G1 X117.212 Y122.505 E25.89374
G1 X116.077 Y123.023 E26.02349
G1 X115.324 Y123.295 E26.10676
G1 X114.505 Y123.528 E26.19531
G1 X113.690 Y123.703 E26.28200
G1 X112.860 Y123.824 E26.36924
G1 X112.046 Y123.886 E26.45414
G1 X111.598 Y123.899 E26.50075
G1 X110.791 Y123.879 E26.58470
G1 X110.332 Y123.844 E26.63258
G1 X109.542 Y123.744 E26.71539
G1 X108.340 Y123.489 E26.84318
G1 X107.514 Y123.241 E26.93287
G1 X106.749 Y122.953 E27.01789
G1 X105.984 Y122.605 E27.10529
G1 X105.257 Y122.212 E27.19124
G1 X104.535 Y121.757 E27.27999
G1 X103.885 Y121.285 E27.36354
G1 X103.231 Y120.739 E27.45214
G1 X102.636 Y120.169 E27.53783
G1 X102.068 Y119.548 E27.62536
G1 X101.545 Y118.892 E27.71261
G1 X101.085 Y118.227 E27.79670
G1 X100.636 Y117.477 E27.88761
G1 X100.098 Y116.371 E28.01552
G1 X99.801 Y115.607 E28.10077
G1 X99.552 Y114.812 E28.18741
G1 X99.355 Y113.995 E28.27482
G1 X99.166 Y112.771 E28.40362
G1 X99.109 Y111.918 E28.49253
G1 X99.100 Y111.490 E28.53705
G1 X99.129 Y110.673 E28.62207
G1 X99.212 Y109.846 E28.70851
G1 X99.436 Y108.634 E28.83670
G1 X99.660 Y107.818 E28.92470
G1 X99.936 Y107.028 E29.01173
G1 X100.262 Y106.261 E29.09840
G1 X100.842 Y105.164 E29.22746
G1 X101.285 Y104.471 E29.31300
G1 X101.535 Y104.122 E29.35764
G1 X102.054 Y103.469 E29.44439
G1 X102.616 Y102.850 E29.53134
G0 F9000 X107.442 Y107.641
G1 F1200 X107.046 Y108.106 E29.59486
G1 X106.716 Y108.590 E29.65579
G1 X106.547 Y108.889 E29.69151
G1 X106.300 Y109.423 E29.75270
G1 X106.109 Y109.984 E29.81433
G1 X105.976 Y110.581 E29.87794
G1 X105.910 Y111.179 E29.94051
G1 X105.899 Y111.524 E29.97641
G1 X105.932 Y112.093 E30.03568
G1 X106.028 Y112.695 E30.09908
G1 X106.191 Y113.284 E30.16264
G1 X106.411 Y113.836 E30.22444
G1 X106.691 Y114.369 E30.28705
G1 X107.222 Y115.113 E30.38212
G1 X107.641 Y115.558 E30.44568
G1 X108.106 Y115.954 E30.50920
G1 X108.590 Y116.284 E30.57013
G1 X108.889 Y116.453 E30.60585
G1 X109.423 Y116.700 E30.66703
G1 X109.984 Y116.891 E30.72867
G1 X110.581 Y117.024 E30.79228
G1 X111.179 Y117.090 E30.85485
G1 X111.524 Y117.101 E30.89075
G1 X112.093 Y117.068 E30.95002
G1 X112.695 Y116.972 E31.01342
G1 X113.284 Y116.809 E31.07698
G1 X113.836 Y116.589 E31.13878
G1 X114.369 Y116.309 E31.20139
G1 X115.113 Y115.778 E31.29645
G1 X115.558 Y115.359 E31.36002
G1 X115.954 Y114.894 E31.42354
G1 X116.284 Y114.410 E31.48446
G1 X116.453 Y114.111 E31.52018
G1 X116.700 Y113.577 E31.58137
G1 X116.891 Y113.016 E31.64301
G1 X117.024 Y112.419 E31.70662
G1 X117.090 Y111.821 E31.76919
G1 X117.101 Y111.476 E31.80508
G1 X117.068 Y110.907 E31.86436
G1 X116.972 Y110.305 E31.92776
G1 X116.809 Y109.716 E31.99132
G1 X116.589 Y109.164 E32.05312
G1 X116.309 Y108.631 E32.11573
G1 X115.778 Y107.887 E32.21079
G1 X115.359 Y107.442 E32.27436
G1 X114.894 Y107.046 E32.33788
G1 X114.410 Y106.716 E32.39880
G1 X114.111 Y106.547 E32.43452
G1 X113.577 Y106.300 E32.49571
G1 X113.016 Y106.109 E32.55734
G1 X112.419 Y105.976 E32.62095
G1 X111.821 Y105.910 E32.68352
G1 X111.476 Y105.899 E32.71942
G1 X110.907 Y105.932 E32.77870
G1 X110.305 Y106.028 E32.84210
G1 X109.716 Y106.191 E32.90565
G1 X109.164 Y106.411 E32.96745
G1 X108.631 Y106.691 E33.03007
G1 X107.887 Y107.222 E33.12513
G1 X107.442 Y107.641 E33.18870
G0 F9000 X107.732 Y107.917
;TYPE:WALL-OUTER
G1 F1200 X107.365 Y108.349 E33.24765
G1 X107.056 Y108.801 E33.30459
G1 X106.903 Y109.072 E33.33696
G1 X106.672 Y109.572 E33.39424
G1 X106.495 Y110.092 E33.45137
G1 X106.371 Y110.647 E33.51051
G1 X106.309 Y111.207 E33.56911
G1 X106.300 Y111.519 E33.60157
G1 X106.330 Y112.050 E33.65688
G1 X106.419 Y112.610 E33.71585
G1 X106.570 Y113.156 E33.77477
G1 X106.775 Y113.669 E33.83222
G1 X107.037 Y114.168 E33.89083
G1 X107.197 Y114.419 E33.92179
G1 X107.528 Y114.854 E33.97864
G1 X107.917 Y115.268 E34.03772
G1 X108.349 Y115.635 E34.09667
G1 X108.801 Y115.944 E34.15361
G1 X109.072 Y116.097 E34.18598
G1 X109.572 Y116.328 E34.24326
G1 X110.092 Y116.505 E34.30039
G1 X110.647 Y116.629 E34.35953
G1 X111.207 Y116.691 E34.41813
G1 X111.519 Y116.700 E34.45059
G1 X112.050 Y116.670 E34.50590
G1 X112.610 Y116.581 E34.56487
G1 X113.156 Y116.430 E34.62379
G1 X113.669 Y116.225 E34.68124
G1 X114.168 Y115.963 E34.73985
G1 X114.419 Y115.803 E34.77081
G1 X114.854 Y115.472 E34.82766
G1 X115.268 Y115.083 E34.88674
G1 X115.635 Y114.651 E34.94569
G1 X115.944 Y114.199 E35.00263
G1 X116.097 Y113.928 E35.03500
G1 X116.328 Y113.428 E35.09228
G1 X116.505 Y112.908 E35.14941
G1 X116.629 Y112.353 E35.20855
G1 X116.691 Y111.793 E35.26715
G1 X116.700 Y111.481 E35.29961
G1 X116.670 Y110.950 E35.35492
G1 X116.581 Y110.390 E35.41389
G1 X116.430 Y109.844 E35.47281
G1 X116.225 Y109.331 E35.53026
G1 X115.963 Y108.832 E35.58888
G1 X115.803 Y108.581 E35.61983
G1 X115.472 Y108.146 E35.67668
G1 X115.083 Y107.732 E35.73576
G1 X114.651 Y107.365 E35.79471
G1 X114.199 Y107.056 E35.85165
G1 X113.928 Y106.903 E35.88402
G1 X113.428 Y106.672 E35.94130
G1 X112.908 Y106.495 E35.99843
G1 X112.353 Y106.371 E36.05757
G1 X111.793 Y106.309 E36.11617
G1 X111.481 Y106.300 E36.14863
G1 X110.950 Y106.330 E36.20394
G1 X110.390 Y106.419 E36.26291
G1 X109.844 Y106.570 E36.32183
G1 X109.331 Y106.775 E36.37928
G1 X108.832 Y107.037 E36.43790
G1 X108.581 Y107.197 E36.46885
G1 X108.146 Y107.528 E36.52570
G1 X107.732 Y107.917 E36.58478
G0 F9000 X107.528 Y107.699
G0 X102.545 Y102.781
G0 X102.326 Y102.575
G1 F1200 X102.954 Y101.971 E36.67540
G1 X103.595 Y101.433 E36.76243
G1 X104.294 Y100.922 E36.85248
G1 X105.017 Y100.466 E36.94138
G1 X105.793 Y100.044 E37.03325
G1 X106.565 Y99.691 E37.12153
G1 X107.365 Y99.388 E37.21050
G1 X108.183 Y99.139 E37.29942
G1 X109.025 Y98.943 E37.38933
G1 X109.469 Y98.863 E37.43625
G1 X110.303 Y98.757 E37.52368
G1 X110.742 Y98.723 E37.56948
G1 X111.596 Y98.700 E37.65833
G1 X112.448 Y98.736 E37.74701
G1 X113.317 Y98.831 E37.83793
G1 X114.162 Y98.980 E37.92716
G1 X114.988 Y99.184 E38.01565
G1 X115.804 Y99.446 E38.10478
G1 X116.597 Y99.759 E38.19344
G1 X117.395 Y100.139 E38.28536
G1 X118.133 Y100.554 E38.37342
G1 X119.191 Y101.269 E38.50622
G1 X119.880 Y101.826 E38.59836
G1 X120.507 Y102.407 E38.68726
G1 X121.087 Y103.019 E38.77495
G1 X121.638 Y103.686 E38.86493
G1 X122.137 Y104.381 E38.95391
G1 X122.593 Y105.117 E39.04395
G1 X122.996 Y105.875 E39.13324
G1 X123.350 Y106.665 E39.22327
G1 X123.650 Y107.475 E39.31310
G1 X123.890 Y108.292 E39.40166
G1 X124.078 Y109.134 E39.49138
G1 X124.152 Y109.560 E39.53635
G1 X124.254 Y110.423 E39.62673
G1 X124.297 Y111.261 E39.71399
G1 X124.299 Y111.688 E39.75840
G1 X124.257 Y112.542 E39.84732
G1 X124.154 Y113.422 E39.93947
G1 X124.079 Y113.860 E39.98568
G1 X124.079 Y113.871 E39.98683
G1 X123.901 Y114.672 E40.07216
G1 X123.663 Y115.485 E40.16026
G1 X123.361 Y116.313 E40.25193
G1 X123.012 Y117.095 E40.34099
G1 X122.395 Y118.216 E40.47406
G1 X121.912 Y118.944 E40.56492
G1 X121.391 Y119.623 E40.65393
G1 X120.824 Y120.268 E40.74324
G1 X120.209 Y120.881 E40.83355
G1 X119.568 Y121.437 E40.92180
G1 X118.886 Y121.953 E41.01074
G1 X118.171 Y122.422 E41.09967
G1 X117.401 Y122.858 E41.19170
G1 X116.237 Y123.390 E41.32480
G1 X115.434 Y123.680 E41.41359
G1 X114.605 Y123.916 E41.50323
G1 X113.759 Y124.098 E41.59323
G1 X112.903 Y124.222 E41.68318
G1 X112.061 Y124.286 E41.77100
G1 X111.600 Y124.299 E41.81896
G1 X110.774 Y124.279 E41.90489
G1 X109.478 Y124.139 E42.04046
G1 X109.028 Y124.059 E42.08799
G1 X108.231 Y123.874 E42.17309
G1 X107.390 Y123.621 E42.26442
G1 X106.597 Y123.322 E42.35256
G1 X105.799 Y122.960 E42.44369
G1 X105.050 Y122.555 E42.53225
G1 X104.322 Y122.097 E42.62170
G1 X103.628 Y121.592 E42.71096
G1 X102.968 Y121.041 E42.80038
G1 X102.350 Y120.449 E42.88938
G1 X101.763 Y119.807 E42.97985
G1 X101.223 Y119.130 E43.06991
G1 X100.747 Y118.441 E43.15700
G1 X100.293 Y117.682 E43.24898
G1 X99.731 Y116.531 E43.38219
G1 X99.424 Y115.741 E43.47034
G1 X99.166 Y114.919 E43.55994
G1 X98.964 Y114.081 E43.64959
